packages/core/src/svgs/tokens/mono/LEOX.svg

<svg width="24" height="24" viewBox="0 0 24 24" fill="none" xmlns="http://www.w3.org/2000/svg">
<path d="M4.11009 17.1729C4.27104 17.1729 4.42542 17.1089 4.53925 16.9951C4.65306 16.8813 4.717 16.7268 4.717 16.566C4.717 16.405 4.65306 16.2506 4.53925 16.1367C4.42542 16.023 4.27104 15.959 4.11009 15.959C3.94913 15.959 3.79476 16.023 3.68093 16.1367C3.56711 16.2506 3.50317 16.405 3.50317 16.566C3.50317 16.7268 3.56711 16.8813 3.68093 16.9951C3.79476 17.1089 3.94913 17.1729 4.11009 17.1729ZM6.35568 15.3521H6.4103C6.53167 15.3521 6.64699 15.3036 6.73196 15.2126L13.0802 8.85812C13.1245 8.81354 13.1591 8.76041 13.1822 8.70196C13.2051 8.64352 13.2159 8.58101 13.2138 8.51825C13.2096 8.4002 13.1622 8.28782 13.0802 8.20266C12.995 8.11727 12.8793 8.06925 12.7586 8.06914C12.6372 8.06914 12.5159 8.11162 12.4248 8.20266L6.48919 14.1383C5.93084 13.1209 5.63856 11.979 5.63951 10.8184C5.63951 7.01917 8.73478 4.1242 12.522 4.1242C13.8874 4.1242 15.1985 4.50656 16.3334 5.25913C16.4223 5.32042 16.5301 5.34852 16.6375 5.33853C16.7452 5.32855 16.8459 5.28112 16.922 5.2045L19.1495 2.78898C19.3315 2.61297 19.3315 2.32166 19.1495 2.13351C19.0672 2.05104 18.9563 2.00324 18.8399 2C18.7186 2 18.5911 2.04248 18.494 2.13351L16.4365 4.25165C15.2561 3.54764 13.9021 3.18814 12.5279 3.21382C8.2189 3.21382 4.717 6.50937 4.717 10.8184C4.717 12.3661 5.16611 13.8592 6.02187 15.1457C6.10076 15.2611 6.22215 15.3339 6.36174 15.3521H6.35568ZM18.9188 6.43047C18.842 6.33188 18.7295 6.26762 18.6055 6.2517C18.4816 6.23578 18.3564 6.2695 18.2573 6.3455C18.2086 6.3814 18.1675 6.42666 18.1365 6.47861C18.1055 6.53055 18.0853 6.58816 18.0768 6.64806C18.0683 6.70796 18.0718 6.76894 18.0872 6.82746C18.1025 6.88597 18.1294 6.94083 18.1663 6.98883C19.0808 8.16846 19.58 9.61714 19.5864 11.1097C19.5769 12.9602 18.8392 14.7325 17.5331 16.0431C16.2269 17.3539 14.4573 18.0977 12.6069 18.1135C11.4052 18.1135 10.1974 17.6887 9.15961 17.1243L14.9011 11.2858C14.9835 11.2035 15.0312 11.0928 15.0345 10.9762C15.0345 10.8548 14.992 10.7274 14.9011 10.6304C14.8532 10.5837 14.796 10.5475 14.7333 10.5246C14.6705 10.5015 14.6036 10.492 14.5369 10.4968C14.4231 10.5043 14.3158 10.5516 14.2334 10.6304L3.63669 21.2331C3.56165 21.3229 3.52307 21.4377 3.52859 21.5547C3.5341 21.6716 3.58331 21.7822 3.66647 21.8646C3.74964 21.947 3.86069 21.9951 3.97769 21.9997C4.09468 22.0041 4.20906 21.9644 4.29823 21.8886L8.46773 17.798C9.69917 18.5566 11.1122 18.9696 12.5584 18.9936C16.9281 18.9936 20.4968 15.4128 20.4968 11.1037C20.4968 9.4043 19.9506 7.78388 18.9188 6.43047Z" fill="white"/>
</svg>

<svg xmlns="http://www.w3.org/2000/svg" width="24" height="24" fill="none" viewBox="0 0 24 24">
    <path fill="#fff" d="M4.11 17.173a.607.607 0 1 0 0-1.214.607.607 0 0 0 0 1.214m2.246-1.82h.054a.44.44 0 0 0 .322-.14l6.348-6.355a.46.46 0 0 0 .134-.34.455.455 0 0 0-.455-.45.47.47 0 0 0-.334.135l-5.936 5.935a6.9 6.9 0 0 1-.85-3.32c0-3.799 3.096-6.694 6.883-6.694a6.85 6.85 0 0 1 3.811 1.135.46.46 0 0 0 .589-.054l2.227-2.416A.462.462 0 0 0 18.84 2a.5.5 0 0 0-.345.134l-2.058 2.118a7.36 7.36 0 0 0-3.908-1.038c-4.31 0-7.811 3.295-7.811 7.604 0 1.548.45 3.041 1.305 4.328.079.115.2.188.34.206zM18.919 6.43a.473.473 0 0 0-.842.218.45.45 0 0 0 .09.34 6.77 6.77 0 0 1 1.42 4.122 7.04 7.04 0 0 1-6.98 7.003c-1.202 0-2.41-.424-3.447-.989l5.741-5.838a.46.46 0 0 0 .133-.31.5.5 0 0 0-.133-.346.47.47 0 0 0-.364-.133.5.5 0 0 0-.304.133L3.637 21.233a.467.467 0 0 0 .661.656l4.17-4.091a8.05 8.05 0 0 0 4.09 1.196c4.37 0 7.939-3.581 7.939-7.89 0-1.7-.546-3.32-1.578-4.674"/>
</svg>
